X: 763
T: Nell Flaherty's Drake   #2
T: the Widow's Curse
R: jig
%S: s:2 b:9(5+4)
C: F.O'Neill
B: O'Neill's 1850 "Music of Ireland" #763
Z: Stephen Foy (shf@access.digex.net)
N: Compacted via repeats and multiple endings [JC]
N: Compacted by using labels and play order [JC]
P: Play (A1A2)x2 + (BA2)x2
Z: abc 1.6
M: 6/8
R: jig
K: G
"^A"[|] (D | G)AB AGE | DEG GBd | efg [1,3 dBG | {c}BAA A2 :|[2,4 dBA | BGG G2 :|
"^B"|: B | def {a}gfg | afd edB | gfg edB | {c}BAA "^->A2"A2 |]
